X:1
T:Lngdans efter Sven Lorenz Bruun (nr 6)
R:Lngdans
Z:Transkription gjord av Jonas Brunskog, 23/6 2008
O:Mnsters, Dderhultsvik, Smland
S:efter Sven Lorenz Bruun
N:Folkmusikkommissionens notsamling, http://www.smus.se/earkiv/fmk/browselarge.phplang=sw&katalogid=M188&bildnr=00053|Bild: 53 Volym: M 188 Datering: -1837. Nummer 6
M:2/4
L:1/16
K:C
|:(ge)(ge) c'2c'2|(af)(af) d2(dc)| (BG)(Bd) g2(gf)|(ef)(de) c2c2:|
|:(dB)(dB) g2g2| (ec)(ec) g2g2 |(dB)(dB) g2(gf)| (ef)(de) c2c2:|
